src/assets/img/icons/duotone-icons/Electric/Blender.svg

<?xml version="1.0" encoding="UTF-8"?>
<svg width="24px" height="24px" viewBox="0 0 24 24" version="1.1" xmlns="http://www.w3.org/2000/svg" xmlns:xlink="http://www.w3.org/1999/xlink">
    <!-- Generator: Sketch 52.2 (67145) - http://www.bohemiancoding.com/sketch -->
    <title>Stockholm-icons / Electric / Blender</title>
    <desc>Created with Sketch.</desc>
    <g id="Stockholm-icons-/-Electric-/-Blender" stroke="none" stroke-width="1" fill="none" fill-rule="evenodd">
        <path d="M17.2024293,13 L15,13 C14.4477153,13 14,13.4477153 14,14 C14,14.5522847 14.4477153,15 15,15 L16.6419082,15 L16.0011546,17.2862783 C15.8801606,17.7179966 15.4866086,18.0164151 15.0382559,18.0164151 L7.96869566,18.0164157 C7.32289855,18.0164157 6.65623289,16.5787625 5.96869866,13.7034562 C4.82174248,12.9484241 3,10.9111513 3,8.5164151 C3,5.47884897 4.32212298,3.0164151 5.95304434,3.0164151 C5.97700649,3.0164151 6.00090198,3.01694665 6.0247276,3.01800378 C6.10056889,2.99516635 10.3205297,2.99405553 18.68461,3.01467133 C18.7750091,3.01489414 18.8649605,3.02737382 18.9520059,3.05176928 C19.4837952,3.20080923 19.7940748,3.75273034 19.6450348,4.28451957 L19.4445139,5 L15,5 C14.4477153,5 14,5.44771525 14,6 C14,6.55228475 14.4477153,7 15,7 L18.8839927,7 L18.3234716,9 L15,9 C14.4477153,9 14,9.44771525 14,10 C14,10.5522847 14.4477153,11 15,11 L17.7629505,11 L17.2024293,13 Z M6.44521839,11.0164151 L6.44521839,5.0164151 C5.46087028,5.5164151 4.96869623,6.14853376 4.96869623,8.0164151 C4.96869623,10.0962194 6.22339771,11.0164151 6.44521839,11.0164151 Z" id="Combined-Shape" fill="#335EEA"></path>
        <path d="M6,19 L16,19 C17.1045695,19 18,19.8954305 18,21 L18,22.5 C18,22.7761424 17.7761424,23 17.5,23 L4.5,23 C4.22385763,23 4,22.7761424 4,22.5 L4,21 C4,19.8954305 4.8954305,19 6,19 Z M11,22 C11.5522847,22 12,21.5522847 12,21 C12,20.4477153 11.5522847,20 11,20 C10.4477153,20 10,20.4477153 10,21 C10,21.5522847 10.4477153,22 11,22 Z" id="Combined-Shape" fill="#335EEA" opacity="0.3"></path>
    </g>
</svg>

<svg width="24" height="24" viewBox="0 0 24 24" xmlns="http://www.w3.org/2000/svg"><g fill="#335EEA" fill-rule="evenodd"><path d="M17.202 13H15a1 1 0 000 2h1.642l-.64 2.286a1 1 0 01-.964.73h-7.07c-.645 0-1.312-1.437-2-4.313C4.823 12.948 3 10.911 3 8.516c0-3.037 1.322-5.5 2.953-5.5.024 0 .048 0 .072.002.076-.023 4.296-.024 12.66-.003a1 1 0 01.96 1.27l-.2.715H15a1 1 0 000 2h3.884l-.56 2H15a1 1 0 000 2h2.763l-.56 2zM6.445 11.016v-6c-.984.5-1.476 1.133-1.476 3 0 2.08 1.254 3 1.476 3z"/><path d="M6 19h10a2 2 0 012 2v1.5a.5.5 0 01-.5.5h-13a.5.5 0 01-.5-.5V21a2 2 0 012-2zm5 3a1 1 0 100-2 1 1 0 000 2z" opacity=".3"/></g></svg>
